X: 41765
T: Varmland
R: waltz
M: 3/4
K: Gmajor
|G,2B,2D2|G2B2d2|ed cd A2|ed cd A2|AG BA G2|
G,2B,2D2|G2B2d2|ed cd A2|ed cd ef|1 g4 g2:|2 g3e dc||
|:(AB) gd BG|(DE) cB AG|FA DF AF|AG GB dc|
(AB) gd BG|(DE) cB AG|FA DF AF|1 G2zB dc:|2 G4z2||
K:D
|:Ad f2 f2|fe gf ed|ce Ac eA|ed ba fd|
Ad f3f|fe gf ed|ce Ac ec|1 d2 d4:|2 df ed c=c||
K:G
|:B2 GB dB|ed cB AG|FA DF AD|AG GB dc|
B2 GB dB|ed cB AG|FA DF AF|1 G2 zBdc:|2 G4z2||

